!!!COM:	Bach, Johann Sebastian
!!!OMV:	Nun ruhen alle W&auml;lder
!!!OTL:	Nun ruhen alle W&auml;lder
**kern	**fb	**kern	**kern	**kern	**kern
*part5	*part5	*part4	*part3	*part2	*part1
*staff5	*	*staff4	*staff3	*staff2	*staff1
*I"Continuo	*	*I"Voice	*I"Voice	*I"Voice	*I"Voice
*I'Cont.	*	*I'V	*I'V	*I'V	*I'V
*clefF4	*	*clefF4	*clefGv2	*clefG2	*clefG2
*Trd0c0	*	*	*	*	*
*k[b-e-a-d-]	*	*k[b-e-a-d-]	*k[b-e-a-d-]	*k[b-e-a-d-]	*k[b-e-a-d-]
*M4/4	*	*M4/4	*M4/4	*M4/4	*M4/4
4A-	.	4A-	4e-	4a-	4cc
=2	=2	=2	=2	=2	=2
8d-L	.	8d-L	4d-	4f	4a-
8cJ	.	8cJ	.	.	.
4B-	6	4B-	4d-	4g	4b-
4.A-	.	4.A-	8e-L	8a-L	8ccL
.	.	.	8d-J	8b-J	8dd-J
.	.	.	8cL	4cc	4ee-
8G	.	8G	8B-J	.	.
=3	=3	=3	=3	=3	=3
4F	6 5	4F	4A-	4cc	2dd-
4G	6 5	4G	4e-	4b-	.
4A-;	.	4A-;	4e-;	4a-;	4cc;
4F	5	4F	4f	4a-	8ccL
.	6	.	.	.	8dd-J
=4	=4	=4	=4	=4	=4
8CL	6	8CL	4e-	8a-L	4ee-
8BB-J	.	8BB-J	.	8gJ	.
8CL	6	8CL	4e-	8a-L	4ee-
8D-J	.	8D-J	.	8fJ	.
8E-L	.	8E-L	4e-	8gL	4b-
8D-J	.	8D-J	.	8fJ	.
4C	.	4C	4G	4e-	4cc
=5	=5	=5	=5	=5	=5
2F	7	2F	8A-L	4e-	2a-
.	.	.	8GJ	.	.
.	nr6	.	4A-	4dn	.
4E-;	.	4E-;	4B-;	4e-;	4g;
4D-	6 4 2	4D-	8GL	4B-	4e-
.	.	.	8FJ	.	.
=6	=6	=6	=6	=6	=6
4C	6	4C	4E-	4e-	4a-
4BB-	5	4BB-	8FL	4d-	4b-
.	6	.	8GJ	.	.
8AA-L	.	8AA-L	4A-	8cL	4cc
8BB-J	.	8BB-J	.	8d-J	.
8CL	6	8CL	4A-	4e-	4cc
8D-J	.	8D-J	.	.	.
=7	=7	=7	=7	=7	=7
2.E-;	.	2.E-;	2.G;	2.e-;	2.b-;
4En	6	4En	4c	4g	4cc
=8	=8	=8	=8	=8	=8
!!linebreak:original
4F	5	4F	8cL	4f	4a-
.	6	.	8d-J	.	.
4G	6	4G	8cL	4e-	4b-
.	.	.	8B-J	.	.
4A-	.	4A-	8A-L	4e-	8ccL
.	.	.	8B-J	.	8dd-J
4An	6 5	4An	4c	4f	4ee-
=9	=9	=9	=9	=9	=9
4B-	.	4B-	8B-L	8fL	2dd-
.	.	.	8cJ	8e-J	.
4BB-	.	4BB-	8d-L	8fL	.
.	.	.	8e-J	8gJ	.
4F;	n	4F;	4f;	4an;	4cc;
4F	-	4F	4f	4a-X	8ccL
.	.	.	.	.	8dd-J
=10	=10	=10	=10	=10	=10
4G	6	4G	8e-L	4b-	4ee-
.	5	.	8d-J	.	.
4A-	.	4A-	4c	8a-L	4ee-
.	.	.	.	8gJ	.
8A-L	6 nr4 2	8A-L	4dn	4f	4b-
8GJ	.	8GJ	.	.	.
8FL	5 2	8FL	4G	4g	4cc
8EnJ	.	8EnJ	.	.	.
=11	=11	=11	=11	=11	=11
8FL	9	8FL	2c	4g	2a-
8GJ	.	8GJ	.	.	.
8A-L	6	8A-L	.	4f	.
8B-J	.	8B-J	.	.	.
4c;	n	4c;	4c;	4en;	4g;
4C	-	4C	4c	4e-X	4e-
=12	=12	=12	=12	=12	=12
4F	7	4F	8cL	8e-L	4a-
.	6	.	8d-J	8fJ	.
4G	6 5	4G	8cL	8e-L	4b-
.	.	.	8B-J	8d-J	.
8A-L	.	8A-L	4A-	8cL	4cc
8GJ	.	8GJ	.	8e-J	.
8FL	6	8FL	4A-	8fL	4dd-
8E-J	.	8E-J	.	8gJ	.
=13	=13	=13	=13	=13	=13
!!pagebreak:original
4D-	7 5	4D-	4f	4a-	4cc
4E-	.	4E-	8B-	4g	4b-
.	.	.	16cLL	.	.
.	.	.	16d-JJ	.	.
4AA-;	.	4AA-;	4c;	4e-;	4a-;
=||	=||	=||	=||	=||	=||
*-	*-	*-	*-	*-	*-
!!!system-decoration: s1,s2,s3,s4,s5
